X:49
T:BNYJEAN3- Bonny Jean
S:SMM #54
Q:1/4=120
L:1/4
M:C
K:D
F3/4E/4|DD/4E/4F/A,3/2B/|DD/E/FE/D/|G3/2 B/ A/F/ E/D/|\
E3/4F/4E/ D/B,~F3/4E/4|DF/4G/4A/A,3/2 B,/|DDd~c3/4B/4|\
A3/4B/4A/ F/ E/F/G/ A/|F~E3/4D/4 D||(A/4B/4c/)|\
dd/4e/4f/A3/2B/|d3/4c/4d/ e/fd/e/|f/e/ d/B/ A3/4B/4d/ F/|\
G/F/E/ D/B,~F3/4E/4|DF/4G/4A/A,B,/|DDd~c3/4B/4|\
A3/4B/4A/ G/4F/4 E3/4F/4G/ A/|F ~E3/4D/4 D|]

